; generated by Slic3r 0.9.10-dev on 2013-06-21 at 16:02:28

; Metamáquina 2
; Perfil de baixa qualidade e alta velocidade
; modificado por rsilva em 2013-06-20

; layer_height = 0.25
; perimeters = 3
; top_solid_layers = 3
; bottom_solid_layers = 2
; fill_density = 0.18
; perimeter_speed = 80
; infill_speed = 80
; travel_speed = 90
; nozzle_diameter = 0.35
; filament_diameter = 2.88
; extrusion_multiplier = 1.0
; perimeters extrusion width = 0.39mm
; infill extrusion width = 0.39mm
; solid infill extrusion width = 0.39mm
; top infill extrusion width = 0.28mm
; first layer extrusion width = 0.60mm

G21 ; set units to millimeters
M107
M140 S75 ; set bed temp, don't wait
M104 S180 ; set heater temp, don't wait
G0 X10 Y10 Z10 F10000
G28 X0 Y0
G0 Z0 F300
G0 Z5 F300
G0 Z0 F75
M190 S75 ; wait for bed temp
M109 S180 ; set heater temp and wait
M908 P3 S120 ; increase extruder motor current 
G92 E0 ; reset extruder length
G90 ; use absolute coordinates
M83 ; use relative distances for extrusion
G1 Z0.300 F5400.000
G1 F1800.000 E-2.00000
G1 X77.830 Y75.194 F5400.000
G1 F1800.000 E2.00000
G1 X78.370 Y74.664 F1200.000 E0.01904
G1 X79.530 Y73.604 E0.03954
G1 X80.440 Y72.824 E0.03016
G1 X81.430 Y72.054 E0.03156
G1 X83.090 Y70.914 E0.05067
G1 X83.760 Y70.494 E0.01990
G1 X85.400 Y69.554 E0.04756
G1 X86.100 Y69.184 E0.01992
G1 X87.000 Y68.754 E0.02510
G1 X87.860 Y68.374 E0.02366
G1 X88.450 Y68.134 E0.01603
G1 X89.920 Y67.584 E0.03949
G1 X90.860 Y67.284 E0.02483
G1 X92.380 Y66.864 E0.03968
G1 X92.970 Y66.714 E0.01532
G1 X93.890 Y66.514 E0.02369
G1 X94.930 Y66.324 E0.02660
G1 X95.600 Y66.224 E0.01704
G1 X97.160 Y66.044 E0.03951
G1 X98.000 Y65.984 E0.02119
G1 X99.560 Y65.924 E0.03928
G1 X100.410 Y65.924 E0.02139
G1 X101.980 Y65.984 E0.03953
G1 X102.830 Y66.044 E0.02144
G1 X104.390 Y66.224 E0.03951
G1 X105.060 Y66.324 E0.01704
G1 X106.100 Y66.514 E0.02660
G1 X107.020 Y66.714 E0.02369
G1 X109.130 Y67.284 E0.05499
G1 X110.070 Y67.584 E0.02483
G1 X111.540 Y68.134 E0.03949
G1 X112.130 Y68.374 E0.01603
G1 X113.330 Y68.914 E0.03311
G1 X113.890 Y69.184 E0.01564
G1 X114.590 Y69.554 E0.01992
G1 X116.230 Y70.494 E0.04756
G1 X116.900 Y70.914 E0.01990
G1 X118.560 Y72.054 E0.05067
G1 X119.550 Y72.824 E0.03156
G1 X120.040 Y73.234 E0.01608
G1 X121.620 Y74.664 E0.05362
G1 X122.590 Y75.644 E0.03469
G1 X123.500 Y76.654 E0.03421
G1 X124.860 Y78.334 E0.05438
G1 X125.400 Y79.074 E0.02305
G1 X126.270 Y80.374 E0.03936
G1 X126.670 Y81.024 E0.01920
G1 X127.600 Y82.684 E0.04787
G1 X127.910 Y83.304 E0.01744
G1 X128.560 Y84.724 E0.03929
G1 X128.860 Y85.454 E0.01986
G1 X129.410 Y86.924 E0.03949
G1 X129.680 Y87.734 E0.02148
G1 X130.030 Y88.944 E0.03169
G1 X130.240 Y89.794 E0.02203
G1 X130.620 Y91.644 E0.04752
G1 X130.820 Y92.904 E0.03210
G1 X130.970 Y94.374 E0.03718
G1 X131.070 Y96.564 E0.05516
G1 X131.070 Y97.414 E0.02139
G1 X130.970 Y99.624 E0.05566
G1 X130.820 Y101.094 E0.03718
G1 X130.620 Y102.314 E0.03111
G1 X130.310 Y103.854 E0.03952
G1 X130.130 Y104.614 E0.01965
G1 X129.710 Y106.134 E0.03968
G1 X129.410 Y107.074 E0.02483
G1 X128.860 Y108.544 E0.03949
G1 X128.560 Y109.274 E0.01986
G1 X127.910 Y110.694 E0.03929
G1 X127.600 Y111.314 E0.01744
G1 X127.110 Y112.204 E0.02556
G1 X126.290 Y113.584 E0.04039
G1 X125.420 Y114.894 E0.03957
G1 X124.860 Y115.664 E0.02396
G1 X123.880 Y116.894 E0.03957
G1 X123.500 Y117.344 E0.01482
G1 X122.590 Y118.354 E0.03421
G1 X121.750 Y119.214 E0.03025
G1 X110.160 Y130.144 E0.40083
G1 X109.050 Y131.064 E0.03627
G1 X108.650 Y131.354 E0.01243
G1 X107.450 Y132.114 E0.03574
G1 X107.010 Y132.354 E0.01261
G1 X105.860 Y132.894 E0.03197
G1 X105.390 Y133.084 E0.01276
G1 X103.870 Y133.574 E0.04018
G1 X103.380 Y133.694 E0.01269
G1 X102.310 Y133.904 E0.02744
G1 X101.820 Y133.974 E0.01245
G1 X100.250 Y134.084 E0.03960
G1 X99.740 Y134.084 E0.01283
G1 X98.200 Y133.984 E0.03883
G1 X97.700 Y133.914 E0.01270
G1 X96.550 Y133.684 E0.02951
G1 X96.070 Y133.564 E0.01245
G1 X94.600 Y133.084 E0.03891
G1 X94.130 Y132.894 E0.01276
G1 X92.980 Y132.354 E0.03197
G1 X92.540 Y132.114 E0.01261
G1 X91.440 Y131.434 E0.03254
G1 X91.030 Y131.144 E0.01264
G1 X89.710 Y130.034 E0.04339
G1 X78.240 Y119.214 E0.39673
G1 X77.830 Y118.804 E0.01459
G1 X77.120 Y118.054 E0.02598
G1 X76.110 Y116.894 E0.03870
G1 X75.130 Y115.664 E0.03957
G1 X74.570 Y114.894 E0.02396
G1 X73.700 Y113.584 E0.03957
G1 X73.350 Y113.014 E0.01683
G1 X72.690 Y111.874 E0.03314
G1 X72.390 Y111.314 E0.01598
G1 X72.080 Y110.694 E0.01744
G1 X71.430 Y109.274 E0.03929
G1 X71.130 Y108.544 E0.01986
G1 X70.580 Y107.074 E0.03949
G1 X70.280 Y106.134 E0.02483
G1 X69.860 Y104.614 E0.03968
G1 X69.680 Y103.854 E0.01965
G1 X69.260 Y101.714 E0.05487
G1 X69.170 Y101.094 E0.01576
G1 X69.020 Y99.624 E0.03718
G1 X68.920 Y97.414 E0.05566
G1 X68.920 Y96.564 E0.02139
G1 X69.020 Y94.374 E0.05516
G1 X69.170 Y92.904 E0.03718
G1 X69.260 Y92.284 E0.01576
G1 X69.370 Y91.644 E0.01634
G1 X69.750 Y89.794 E0.04752
G1 X69.960 Y88.944 E0.02203
G1 X70.310 Y87.734 E0.03169
G1 X70.580 Y86.924 E0.02148
G1 X71.130 Y85.454 E0.03949
G1 X71.430 Y84.724 E0.01986
G1 X72.080 Y83.304 E0.03929
G1 X72.690 Y82.124 E0.03342
G1 X73.320 Y81.024 E0.03189
G1 X73.720 Y80.374 E0.01920
G1 X74.590 Y79.074 E0.03936
G1 X75.130 Y78.334 E0.02305
G1 X76.110 Y77.104 E0.03957
G1 X77.120 Y75.944 E0.03870
G1 X77.773 Y75.253 E0.02392
G1 X78.230 Y75.564 F5400.000
G1 X78.740 Y75.064 F1200.000 E0.01797
G1 X80.310 Y73.644 E0.05326
G1 X81.770 Y72.494 E0.04676
G1 X82.350 Y72.064 E0.01817
G1 X83.390 Y71.364 E0.03154
G1 X84.040 Y70.964 E0.01920
G1 X85.680 Y70.024 E0.04756
G1 X86.340 Y69.674 E0.01880
G1 X87.220 Y69.254 E0.02453
G1 X88.080 Y68.874 E0.02366
G1 X88.640 Y68.644 E0.01523
G1 X90.110 Y68.094 E0.03949
G1 X91.000 Y67.804 E0.02355
G1 X92.520 Y67.384 E0.03968
G1 X94.010 Y67.044 E0.03845
G1 X95.660 Y66.764 E0.04211
G1 X97.220 Y66.584 E0.03951
G1 X98.020 Y66.524 E0.02018
G1 X99.580 Y66.464 E0.03928
G1 X100.390 Y66.464 E0.02038
G1 X101.960 Y66.524 E0.03953
G1 X102.770 Y66.584 E0.02044
G1 X104.330 Y66.764 E0.03951
G1 X105.980 Y67.044 E0.04211
G1 X107.470 Y67.384 E0.03845
G1 X108.990 Y67.804 E0.03968
G1 X109.880 Y68.094 E0.02355
G1 X111.350 Y68.644 E0.03949
G1 X112.770 Y69.254 E0.03888
G1 X113.650 Y69.674 E0.02453
G1 X114.310 Y70.024 E0.01880
G1 X115.950 Y70.964 E0.04756
G1 X116.600 Y71.364 E0.01920
G1 X117.640 Y72.064 E0.03154
G1 X119.210 Y73.264 E0.04972
G1 X120.090 Y74.004 E0.02893
G1 X121.250 Y75.064 E0.03954
G1 X121.760 Y75.564 E0.01797
G1 X122.460 Y76.304 E0.02563
G1 X123.090 Y77.014 E0.02388
G1 X124.430 Y78.674 E0.05368
G1 X124.940 Y79.374 E0.02179
G1 X125.810 Y80.674 E0.03936
G1 X126.200 Y81.304 E0.01864
G1 X127.120 Y82.944 E0.04731
G1 X127.410 Y83.534 E0.01654
G1 X128.060 Y84.954 E0.03929
G1 X128.350 Y85.644 E0.01883
G1 X128.900 Y87.114 E0.03949
G1 X129.150 Y87.884 E0.02037
G1 X129.500 Y89.094 E0.03169
G1 X129.700 Y89.904 E0.02099
G1 X130.190 Y92.354 E0.06286
G1 X130.340 Y93.484 E0.02868
G1 X130.470 Y95.024 E0.03888
G1 X130.530 Y96.584 E0.03928
G1 X130.530 Y97.394 E0.02038
G1 X130.470 Y98.964 E0.03953
G1 X130.340 Y100.514 E0.03914
G1 X130.190 Y101.644 E0.02868
G1 X129.780 Y103.744 E0.05383
G1 X129.610 Y104.474 E0.01886
G1 X129.190 Y105.994 E0.03968
G1 X128.900 Y106.884 E0.02355
G1 X128.350 Y108.354 E0.03949
G1 X128.060 Y109.044 E0.01883
G1 X127.410 Y110.464 E0.03929
G1 X127.120 Y111.054 E0.01654
G1 X126.820 Y111.614 E0.01598
G1 X125.840 Y113.274 E0.04850
G1 X124.970 Y114.584 E0.03957
G1 X124.430 Y115.324 E0.02305
G1 X123.450 Y116.554 E0.03957
G1 X122.460 Y117.694 E0.03799
G1 X121.380 Y118.814 E0.03915
G1 X109.790 Y129.744 E0.40083
G1 X108.730 Y130.624 E0.03466
G1 X108.330 Y130.914 E0.01243
G1 X107.190 Y131.634 E0.03392
G1 X106.750 Y131.874 E0.01261
G1 X105.650 Y132.394 E0.03061
G1 X105.180 Y132.584 E0.01276
G1 X103.740 Y133.044 E0.03803
G1 X103.250 Y133.164 E0.01269
G1 X102.230 Y133.364 E0.02615
G1 X101.740 Y133.434 E0.01245
G1 X100.250 Y133.544 E0.03759
G1 X99.740 Y133.544 E0.01283
G1 X98.280 Y133.434 E0.03684
G1 X97.780 Y133.364 E0.01270
G1 X96.680 Y133.154 E0.02818
G1 X96.200 Y133.034 E0.01245
G1 X94.810 Y132.584 E0.03676
G1 X94.340 Y132.394 E0.01276
G1 X93.240 Y131.874 E0.03061
G1 X92.800 Y131.634 E0.01261
G1 X91.760 Y130.984 E0.03086
G1 X91.350 Y130.694 E0.01264
G1 X90.090 Y129.644 E0.04127
G1 X78.610 Y118.814 E0.39709
G1 X78.230 Y118.434 E0.01352
G1 X77.530 Y117.694 E0.02563
G1 X76.540 Y116.554 E0.03799
G1 X75.560 Y115.324 E0.03957
G1 X75.020 Y114.584 E0.02305
G1 X74.150 Y113.274 E0.03957
G1 X73.820 Y112.734 E0.01592
G1 X73.170 Y111.614 E0.03258
G1 X72.870 Y111.054 E0.01598
G1 X72.580 Y110.464 E0.01654
G1 X71.930 Y109.044 E0.03929
G1 X71.640 Y108.354 E0.01883
G1 X71.090 Y106.884 E0.03949
G1 X70.800 Y105.994 E0.02355
G1 X70.380 Y104.474 E0.03968
G1 X70.210 Y103.744 E0.01886
G1 X69.800 Y101.644 E0.05383
G1 X69.650 Y100.514 E0.02868
G1 X69.560 Y99.574 E0.02376
G1 X69.460 Y97.394 E0.05491
G1 X69.460 Y96.584 E0.02038
G1 X69.560 Y94.424 E0.05440
G1 X69.650 Y93.484 E0.02376
G1 X69.800 Y92.354 E0.02868
G1 X70.290 Y89.904 E0.06286
G1 X70.490 Y89.094 E0.02099
G1 X70.840 Y87.884 E0.03169
G1 X71.090 Y87.114 E0.02037
G1 X71.640 Y85.644 E0.03949
G1 X71.930 Y84.954 E0.01883
G1 X72.580 Y83.534 E0.03929
G1 X72.870 Y82.944 E0.01654
G1 X73.790 Y81.304 E0.04731
G1 X74.180 Y80.674 E0.01864
G1 X75.050 Y79.374 E0.03936
G1 X75.560 Y78.674 E0.02179
G1 X76.540 Y77.444 E0.03957
G1 X77.530 Y76.304 E0.03799
G1 X78.173 Y75.623 E0.02357
G1 F1800.000 E-2.00000
G1 X99.032 Y116.946 F5400.000
G1 F1800.000 E2.00000
G1 X99.297 Y116.842 F1200.000 E0.00718
G1 X99.574 Y116.770 E0.00718
G1 X99.857 Y116.735 E0.00719
G1 X100.143 Y116.735 E0.00719
G1 X100.426 Y116.770 E0.00719
G1 X100.703 Y116.842 E0.00718
G1 X100.968 Y116.946 E0.00718
G1 X101.219 Y117.084 E0.00720
G1 X101.450 Y117.252 E0.00719
G1 X101.657 Y117.448 E0.00717
G1 X101.839 Y117.667 E0.00717
G1 X101.993 Y117.908 E0.00720
G1 X102.115 Y118.168 E0.00722
G1 X102.202 Y118.439 E0.00718
G1 X102.256 Y118.719 E0.00715
G1 X102.274 Y119.004 E0.00720
G1 X102.256 Y119.289 E0.00720
G1 X102.202 Y119.569 E0.00715
G1 X102.115 Y119.840 E0.00718
G1 X101.993 Y120.100 E0.00722
G1 X101.839 Y120.341 E0.00720
G1 X101.657 Y120.560 E0.00717
G1 X101.450 Y120.756 E0.00717
G1 X101.219 Y120.924 E0.00719
G1 X100.968 Y121.062 E0.00720
G1 X100.703 Y121.166 E0.00718
G1 X100.426 Y121.238 E0.00718
G1 X100.143 Y121.273 E0.00719
G1 X99.857 Y121.273 E0.00719
G1 X99.574 Y121.238 E0.00719
G1 X99.297 Y121.166 E0.00718
G1 X99.032 Y121.062 E0.00718
G1 X98.781 Y120.924 E0.00720
G1 X98.550 Y120.756 E0.00719
G1 X98.343 Y120.560 E0.00717
G1 X98.161 Y120.341 E0.00717
G1 X98.007 Y120.100 E0.00720
G1 X97.885 Y119.840 E0.00722
G1 X97.798 Y119.569 E0.00718
G1 X97.744 Y119.289 E0.00715
G1 X97.726 Y119.004 E0.00720
G1 X97.744 Y118.719 E0.00720
G1 X97.798 Y118.439 E0.00715
G1 X97.885 Y118.168 E0.00718
G1 X98.007 Y117.908 E0.00722
G1 X98.161 Y117.667 E0.00720
G1 X98.343 Y117.448 E0.00717
G1 X98.550 Y117.252 E0.00717
G1 X98.781 Y117.084 E0.00719
G1 X98.960 Y116.986 E0.00513
G1 X99.062 Y116.662 F5400.000
G1 X94.242 Y114.725
G1 X92.869 Y114.219 F1200.000 E0.03681
G1 X92.066 Y113.863 E0.02210
G1 X91.541 Y113.606 E0.01472
G1 X90.264 Y112.891 E0.03681
G1 X89.048 Y112.078 E0.03681
G1 X87.899 Y111.173 E0.03682
G1 X86.824 Y110.180 E0.03681
G1 X85.831 Y109.105 E0.03681
G1 X84.926 Y107.956 E0.03681
G1 X84.113 Y106.740 E0.03681
G1 X83.398 Y105.463 E0.03681
G1 X82.785 Y104.135 E0.03681
G1 X82.676 Y103.862 E0.00739
G1 X82.279 Y102.762 E0.02942
G1 X81.954 Y101.638 E0.02945
G1 X81.882 Y101.354 E0.00736
G1 X81.596 Y99.919 E0.03681
G1 X81.424 Y98.466 E0.03681
G1 X81.367 Y97.004 E0.03681
G1 X81.424 Y95.542 E0.03681
G1 X81.516 Y94.669 E0.02210
G1 X81.596 Y94.089 E0.01472
G1 X81.882 Y92.654 E0.03681
G1 X82.279 Y91.246 E0.03681
G1 X82.785 Y89.873 E0.03681
G1 X83.398 Y88.545 E0.03681
G1 X83.673 Y88.028 E0.01473
G1 X84.113 Y87.268 E0.02209
G1 X84.926 Y86.052 E0.03681
G1 X85.831 Y84.903 E0.03681
G1 X86.824 Y83.828 E0.03681
G1 X87.899 Y82.835 E0.03681
G1 X88.125 Y82.648 E0.00738
G1 X89.048 Y81.930 E0.02943
G1 X90.017 Y81.272 E0.02945
G1 X91.541 Y80.402 E0.04416
G1 X92.066 Y80.145 E0.01472
G1 X92.869 Y79.789 E0.02210
G1 X94.242 Y79.283 E0.03681
G1 X95.650 Y78.886 E0.03681
G1 X97.085 Y78.600 E0.03681
G1 X98.538 Y78.428 E0.03682
G1 X100.000 Y78.371 E0.03681
G1 X101.170 Y78.409 E0.02946
G1 X102.915 Y78.600 E0.04416
G1 X104.350 Y78.886 E0.03681
G1 X105.758 Y79.283 E0.03681
G1 X107.131 Y79.789 E0.03681
G1 X107.934 Y80.145 E0.02210
G1 X108.459 Y80.402 E0.01472
G1 X109.736 Y81.117 E0.03681
G1 X110.952 Y81.930 E0.03681
G1 X112.101 Y82.835 E0.03681
G1 X113.176 Y83.828 E0.03681
G1 X114.169 Y84.903 E0.03681
G1 X115.074 Y86.052 E0.03681
G1 X115.887 Y87.268 E0.03681
G1 X116.602 Y88.545 E0.03681
G1 X117.215 Y89.873 E0.03681
G1 X117.324 Y90.146 E0.00739
G1 X117.721 Y91.246 E0.02943
G1 X118.046 Y92.370 E0.02945
G1 X118.118 Y92.654 E0.00736
G1 X118.404 Y94.089 E0.03681
G1 X118.576 Y95.542 E0.03681
G1 X118.633 Y97.004 E0.03681
G1 X118.576 Y98.466 E0.03681
G1 X118.484 Y99.339 E0.02210
G1 X118.404 Y99.919 E0.01472
G1 X118.118 Y101.354 E0.03681
G1 X117.721 Y102.762 E0.03681
G1 X117.215 Y104.135 E0.03681
G1 X116.602 Y105.463 E0.03681
G1 X116.327 Y105.980 E0.01473
G1 X115.887 Y106.740 E0.02209
G1 X115.074 Y107.956 E0.03681
G1 X114.169 Y109.105 E0.03681
G1 X113.176 Y110.179 E0.03681
G1 X112.101 Y111.173 E0.03681
G1 X111.875 Y111.360 E0.00738
G1 X110.952 Y112.078 E0.02943
G1 X109.983 Y112.736 E0.02945
G1 X108.459 Y113.606 E0.04416
G1 X107.934 Y113.863 E0.01472
G1 X107.131 Y114.219 E0.02210
G1 X105.758 Y114.725 E0.03681
G1 X104.350 Y115.122 E0.03681
G1 X100.997 Y115.789 E0.08601
G1 X100.632 Y115.695 E0.00949
G1 X100.211 Y115.642 E0.01068
G1 X99.789 Y115.642 E0.01060
G1 X99.368 Y115.695 E0.01068
G1 X99.003 Y115.789 E0.00949
G1 X95.650 Y115.122 E0.08601
G1 X94.321 Y114.747 E0.03475
G1 X94.073 Y115.245 F5400.000
G1 X92.660 Y114.724 F1200.000 E0.03789
G1 X91.833 Y114.358 E0.02275
G1 X91.293 Y114.093 E0.01515
G1 X89.979 Y113.358 E0.03789
G1 X88.726 Y112.521 E0.03789
G1 X87.544 Y111.588 E0.03789
G1 X86.438 Y110.566 E0.03789
G1 X86.020 Y110.133 E0.01515
G1 X85.416 Y109.460 E0.02274
G1 X84.483 Y108.278 E0.03789
G1 X83.646 Y107.025 E0.03789
G1 X83.194 Y106.243 E0.02274
G1 X82.911 Y105.711 E0.01516
G1 X82.167 Y104.064 E0.04549
G1 X81.759 Y102.931 E0.03029
G1 X81.423 Y101.774 E0.03031
G1 X81.056 Y100.004 E0.04547
G1 X80.973 Y99.408 E0.01515
G1 X80.879 Y98.509 E0.02275
G1 X80.820 Y97.004 E0.03789
G1 X80.879 Y95.499 E0.03789
G1 X80.973 Y94.600 E0.02275
G1 X81.056 Y94.004 E0.01515
G1 X81.350 Y92.526 E0.03789
G1 X81.759 Y91.077 E0.03789
G1 X82.280 Y89.664 E0.03789
G1 X82.911 Y88.297 E0.03789
G1 X83.194 Y87.765 E0.01516
G1 X83.646 Y86.983 E0.02274
G1 X84.483 Y85.730 E0.03789
G1 X85.416 Y84.548 E0.03789
G1 X86.020 Y83.875 E0.02274
G1 X86.438 Y83.442 E0.01515
G1 X87.544 Y82.420 E0.03789
G1 X87.776 Y82.227 E0.00759
G1 X88.726 Y81.487 E0.03030
G1 X89.723 Y80.810 E0.03032
G1 X91.293 Y79.915 E0.04546
G1 X91.833 Y79.650 E0.01515
G1 X92.660 Y79.284 E0.02275
G1 X94.073 Y78.763 E0.03789
G1 X95.523 Y78.354 E0.03789
G1 X96.406 Y78.165 E0.02273
G1 X97.000 Y78.060 E0.01517
G1 X98.495 Y77.883 E0.03789
G1 X100.000 Y77.824 E0.03789
G1 X101.204 Y77.863 E0.03032
G1 X103.157 Y78.079 E0.04941
G1 X104.477 Y78.354 E0.03395
G1 X105.927 Y78.763 E0.03789
G1 X107.340 Y79.284 E0.03789
G1 X108.167 Y79.650 E0.02275
G1 X108.707 Y79.915 E0.01515
G1 X110.021 Y80.650 E0.03789
G1 X111.274 Y81.487 E0.03789
G1 X112.456 Y82.420 E0.03789
G1 X113.562 Y83.442 E0.03789
G1 X113.980 Y83.875 E0.01515
G1 X114.584 Y84.548 E0.02274
G1 X115.517 Y85.730 E0.03789
G1 X116.353 Y86.983 E0.03789
G1 X116.806 Y87.765 E0.02274
G1 X117.089 Y88.297 E0.01516
G1 X117.833 Y89.945 E0.04549
G1 X118.241 Y91.077 E0.03029
G1 X118.577 Y92.234 E0.03031
G1 X118.944 Y94.004 E0.04546
G1 X119.027 Y94.600 E0.01515
G1 X119.121 Y95.499 E0.02275
G1 X119.180 Y97.004 E0.03789
G1 X119.121 Y98.509 E0.03789
G1 X119.027 Y99.408 E0.02275
G1 X118.944 Y100.004 E0.01515
G1 X118.650 Y101.481 E0.03789
G1 X118.241 Y102.931 E0.03789
G1 X117.720 Y104.344 E0.03789
G1 X117.089 Y105.711 E0.03789
G1 X116.806 Y106.243 E0.01516
