; generated by Slic3r 0.9.10b on 2013-09-27 at 14:53:52

; Perfil feito por rsilva em 20/0/13
; Baseado no MM_025_FAST, porém bem modificado e com a velocidade reduzida.

; layer_height = 0.25
; perimeters = 2
; top_solid_layers = 4
; bottom_solid_layers = 2
; fill_density = 0.3
; perimeter_speed = 60
; infill_speed = 60
; travel_speed = 70
; nozzle_diameter = 0.35
; filament_diameter = 2.88
; extrusion_multiplier = 1.1
; perimeters extrusion width = 0.39mm
; infill extrusion width = 0.47mm
; solid infill extrusion width = 0.39mm
; top infill extrusion width = 0.39mm
; first layer extrusion width = 0.48mm

G21 ; set units to millimeters
M107
M140 S75 ; set bed temp, don't wait
M104 S185 ; set heater temp, don't wait
G0 X10 Y10 Z10 F7000
G28 X0 Y0
G0 Z3 F300
G0 Z0 F75
M190 S75 ; wait for bed temp
M109 S185 ; set heater temp and wait
M908 P3 S110 ; set motor current to a safe level. In the next host release we'll remove this command from startgcode
G92 E0 ; reset extruder length
G90 ; use absolute coordinates
M83 ; use relative distances for extrusion
G1 Z0.300 F4200.000
G1 F1800.000 E-2.00000
G1 X77.970 Y75.324 F4200.000
G1 F1800.000 E2.00000
G1 X78.490 Y74.804 F1200.000 E0.01684
G1 X79.650 Y73.744 E0.03599
G1 X80.560 Y72.974 E0.02730
G1 X81.550 Y72.204 E0.02872
G1 X82.150 Y71.764 E0.01704
G1 X83.190 Y71.064 E0.02871
G1 X83.860 Y70.654 E0.01799
G1 X85.500 Y69.714 E0.04329
G1 X86.180 Y69.354 E0.01762
G1 X87.070 Y68.934 E0.02254
G1 X88.520 Y68.314 E0.03612
G1 X89.990 Y67.764 E0.03595
G1 X90.910 Y67.464 E0.02216
G1 X93.010 Y66.894 E0.04983
G1 X94.350 Y66.614 E0.03135
G1 X95.620 Y66.414 E0.02944
G1 X97.180 Y66.234 E0.03596
G1 X97.990 Y66.164 E0.01862
G1 X99.480 Y66.104 E0.03415
G1 X100.410 Y66.104 E0.02130
G1 X101.980 Y66.164 E0.03598
G1 X102.810 Y66.234 E0.01908
G1 X105.020 Y66.504 E0.05099
G1 X106.060 Y66.694 E0.02421
G1 X106.980 Y66.894 E0.02156
G1 X109.080 Y67.464 E0.04983
G1 X110.000 Y67.764 E0.02216
G1 X111.470 Y68.314 E0.03595
G1 X112.060 Y68.554 E0.01459
G1 X113.250 Y69.084 E0.02983
G1 X113.810 Y69.354 E0.01424
G1 X114.490 Y69.714 E0.01762
G1 X116.130 Y70.654 E0.04329
G1 X116.800 Y71.064 E0.01799
G1 X117.840 Y71.764 E0.02871
G1 X118.440 Y72.204 E0.01704
G1 X119.430 Y72.974 E0.02872
G1 X120.340 Y73.744 E0.02730
G1 X121.500 Y74.804 E0.03599
G1 X122.020 Y75.324 E0.01684
G1 X122.730 Y76.064 E0.02349
G1 X123.360 Y76.774 E0.02174
G1 X124.710 Y78.454 E0.04936
G1 X125.240 Y79.184 E0.02066
G1 X126.110 Y80.484 E0.03582
G1 X126.510 Y81.124 E0.01728
G1 X127.430 Y82.774 E0.04327
G1 X127.730 Y83.384 E0.01557
G1 X128.380 Y84.804 E0.03577
G1 X128.680 Y85.524 E0.01786
G1 X129.230 Y86.994 E0.03595
G1 X129.490 Y87.784 E0.01905
G1 X129.840 Y88.994 E0.02885
G1 X130.050 Y89.834 E0.01983
G1 X130.430 Y91.684 E0.04325
G1 X130.540 Y92.304 E0.01442
G1 X130.690 Y93.454 E0.02656
G1 X130.830 Y95.014 E0.03587
G1 X130.890 Y96.574 E0.03575
G1 X130.890 Y97.414 E0.01924
G1 X130.830 Y98.984 E0.03598
G1 X130.690 Y100.544 E0.03587
G1 X130.540 Y101.694 E0.02656
G1 X130.130 Y103.814 E0.04945
G1 X129.950 Y104.564 E0.01766
G1 X129.530 Y106.084 E0.03612
G1 X129.230 Y107.004 E0.02216
G1 X128.680 Y108.474 E0.03595
G1 X128.380 Y109.194 E0.01786
G1 X127.730 Y110.614 E0.03577
G1 X127.430 Y111.224 E0.01557
G1 X126.950 Y112.104 E0.02296
G1 X126.480 Y112.914 E0.02145
G1 X126.130 Y113.474 E0.01512
G1 X125.260 Y114.784 E0.03602
G1 X124.710 Y115.544 E0.02149
G1 X123.360 Y117.224 E0.04936
G1 X122.730 Y117.934 E0.02174
G1 X121.620 Y119.074 E0.03644
G1 X110.030 Y130.004 E0.36485
G1 X108.940 Y130.914 E0.03252
G1 X108.540 Y131.204 E0.01132
G1 X107.360 Y131.944 E0.03190
G1 X106.920 Y132.184 E0.01148
G1 X105.790 Y132.724 E0.02868
G1 X105.320 Y132.914 E0.01161
G1 X103.820 Y133.394 E0.03607
G1 X103.330 Y133.514 E0.01155
G1 X102.280 Y133.714 E0.02448
G1 X101.790 Y133.784 E0.01134
G1 X100.250 Y133.894 E0.03536
G1 X99.740 Y133.894 E0.01168
G1 X98.230 Y133.794 E0.03466
G1 X97.730 Y133.724 E0.01156
G1 X96.600 Y133.504 E0.02637
G1 X96.120 Y133.384 E0.01133
G1 X94.670 Y132.914 E0.03491
G1 X94.200 Y132.724 E0.01161
G1 X93.070 Y132.184 E0.02868
G1 X92.630 Y131.944 E0.01148
G1 X91.550 Y131.274 E0.02911
G1 X91.140 Y130.984 E0.01150
G1 X89.840 Y129.904 E0.03871
G1 X78.370 Y119.074 E0.36128
G1 X77.970 Y118.674 E0.01296
G1 X77.260 Y117.934 E0.02349
G1 X76.630 Y117.224 E0.02174
G1 X75.280 Y115.544 E0.04936
G1 X74.730 Y114.784 E0.02149
G1 X73.860 Y113.474 E0.03602
G1 X73.510 Y112.914 E0.01512
G1 X73.040 Y112.104 E0.02145
G1 X72.560 Y111.224 E0.02296
G1 X72.260 Y110.614 E0.01557
G1 X71.610 Y109.194 E0.03577
G1 X71.310 Y108.474 E0.01786
G1 X70.760 Y107.004 E0.03595
G1 X70.460 Y106.084 E0.02216
G1 X70.040 Y104.564 E0.03612
G1 X69.860 Y103.814 E0.01766
G1 X69.450 Y101.694 E0.04945
G1 X69.360 Y101.074 E0.01435
G1 X69.210 Y99.604 E0.03384
G1 X69.160 Y98.984 E0.01425
G1 X69.100 Y97.414 E0.03598
G1 X69.100 Y96.574 E0.01924
G1 X69.160 Y95.014 E0.03575
G1 X69.300 Y93.454 E0.03587
G1 X69.450 Y92.304 E0.02656
G1 X69.560 Y91.684 E0.01442
G1 X69.940 Y89.834 E0.04325
G1 X70.150 Y88.994 E0.01983
G1 X70.500 Y87.784 E0.02885
G1 X70.760 Y86.994 E0.01905
G1 X71.310 Y85.524 E0.03595
G1 X71.610 Y84.804 E0.01786
G1 X72.260 Y83.384 E0.03577
G1 X72.560 Y82.774 E0.01557
G1 X73.480 Y81.124 E0.04327
G1 X73.880 Y80.484 E0.01728
G1 X74.750 Y79.184 E0.03582
G1 X75.280 Y78.454 E0.02066
G1 X76.630 Y76.774 E0.04936
G1 X77.260 Y76.064 E0.02174
G1 X77.923 Y75.373 E0.02193
G1 X78.290 Y75.634 F4200.000
G1 X78.800 Y75.134 F1200.000 E0.01636
G1 X79.960 Y74.074 E0.03599
G1 X80.830 Y73.334 E0.02616
G1 X81.820 Y72.564 E0.02872
G1 X82.400 Y72.144 E0.01640
G1 X83.440 Y71.444 E0.02871
G1 X84.080 Y71.044 E0.01728
G1 X85.720 Y70.104 E0.04329
G1 X86.380 Y69.764 E0.01700
G1 X87.260 Y69.344 E0.02233
G1 X88.120 Y68.964 E0.02153
G1 X88.680 Y68.734 E0.01386
G1 X90.150 Y68.184 E0.03595
G1 X91.030 Y67.904 E0.02115
G1 X92.550 Y67.484 E0.03612
G1 X94.030 Y67.144 E0.03478
G1 X95.040 Y66.954 E0.02354
G1 X97.230 Y66.684 E0.05054
G1 X98.010 Y66.624 E0.01792
G1 X99.500 Y66.564 E0.03415
G1 X100.390 Y66.564 E0.02038
G1 X101.960 Y66.624 E0.03598
G1 X102.760 Y66.684 E0.01837
G1 X104.950 Y66.954 E0.05054
G1 X105.570 Y67.064 E0.01442
G1 X106.880 Y67.344 E0.03068
G1 X108.960 Y67.904 E0.04933
G1 X109.840 Y68.184 E0.02115
G1 X111.310 Y68.734 E0.03595
G1 X111.870 Y68.964 E0.01386
G1 X113.050 Y69.494 E0.02963
G1 X114.270 Y70.104 E0.03124
G1 X115.910 Y71.044 E0.04329
G1 X116.550 Y71.444 E0.01728
G1 X117.590 Y72.144 E0.02871
G1 X118.170 Y72.564 E0.01640
G1 X119.620 Y73.714 E0.04238
G1 X121.190 Y75.134 E0.04848
G1 X122.130 Y76.084 E0.03061
G1 X123.020 Y77.074 E0.03049
G1 X124.350 Y78.734 E0.04871
G1 X124.870 Y79.434 E0.01997
G1 X125.740 Y80.734 E0.03582
G1 X126.120 Y81.344 E0.01646
G1 X126.590 Y82.164 E0.02165
G1 X127.030 Y82.984 E0.02131
G1 X127.320 Y83.574 E0.01506
G1 X127.970 Y84.994 E0.03577
G1 X128.260 Y85.684 E0.01714
G1 X128.810 Y87.154 E0.03595
G1 X129.060 Y87.914 E0.01832
G1 X129.410 Y89.124 E0.02885
G1 X129.610 Y89.924 E0.01889
G1 X129.990 Y91.774 E0.04325
G1 X130.090 Y92.374 E0.01393
G1 X130.240 Y93.494 E0.02588
G1 X130.370 Y95.034 E0.03539
G1 X130.430 Y96.594 E0.03575
G1 X130.430 Y97.394 E0.01832
G1 X130.370 Y98.964 E0.03598
G1 X130.240 Y100.504 E0.03539
G1 X130.090 Y101.624 E0.02588
G1 X130.000 Y102.184 E0.01299
G1 X129.690 Y103.724 E0.03598
G1 X129.510 Y104.444 E0.01700
G1 X129.090 Y105.964 E0.03612
G1 X128.810 Y106.844 E0.02115
G1 X128.260 Y108.314 E0.03595
G1 X127.970 Y109.004 E0.01714
G1 X127.320 Y110.424 E0.03577
G1 X127.030 Y111.014 E0.01506
G1 X126.560 Y111.884 E0.02265
G1 X125.760 Y113.224 E0.03574
G1 X124.890 Y114.534 E0.03602
G1 X124.350 Y115.264 E0.02080
G1 X123.020 Y116.924 E0.04871
G1 X122.390 Y117.634 E0.02174
G1 X121.700 Y118.364 E0.02300
G1 X121.310 Y118.744 E0.01247
G1 X109.720 Y129.674 E0.36485
G1 X108.680 Y130.544 E0.03105
G1 X108.280 Y130.834 E0.01132
G1 X107.150 Y131.554 E0.03069
G1 X106.710 Y131.794 E0.01148
G1 X105.620 Y132.304 E0.02756
G1 X105.150 Y132.494 E0.01161
G1 X103.720 Y132.954 E0.03440
G1 X103.230 Y133.074 E0.01155
G1 X102.220 Y133.274 E0.02358
G1 X101.730 Y133.344 E0.01134
G1 X100.250 Y133.444 E0.03397
G1 X99.740 Y133.444 E0.01168
G1 X98.290 Y133.344 E0.03329
G1 X97.790 Y133.274 E0.01156
G1 X96.700 Y133.064 E0.02542
G1 X96.220 Y132.944 E0.01133
G1 X94.840 Y132.494 E0.03324
G1 X94.370 Y132.304 E0.01161
G1 X93.280 Y131.794 E0.02756
G1 X92.840 Y131.554 E0.01148
G1 X91.810 Y130.904 E0.02789
G1 X91.400 Y130.614 E0.01150
G1 X90.150 Y129.574 E0.03724
G1 X78.290 Y118.364 E0.37375
G1 X77.600 Y117.634 E0.02300
G1 X76.970 Y116.924 E0.02174
G1 X75.640 Y115.264 E0.04871
G1 X75.100 Y114.534 E0.02080
G1 X74.230 Y113.224 E0.03602
G1 X73.900 Y112.694 E0.01430
G1 X73.430 Y111.884 E0.02145
G1 X72.960 Y111.014 E0.02265
G1 X72.670 Y110.424 E0.01506
G1 X72.020 Y109.004 E0.03577
G1 X71.730 Y108.314 E0.01714
G1 X71.180 Y106.844 E0.03595
G1 X70.900 Y105.964 E0.02115
G1 X70.480 Y104.444 E0.03612
G1 X70.300 Y103.724 E0.01700
G1 X69.990 Y102.184 E0.03598
G1 X69.810 Y101.004 E0.02734
G1 X69.660 Y99.564 E0.03316
G1 X69.560 Y97.394 E0.04975
G1 X69.560 Y96.594 E0.01832
G1 X69.660 Y94.434 E0.04952
G1 X69.750 Y93.494 E0.02163
G1 X69.900 Y92.374 E0.02588
G1 X70.000 Y91.774 E0.01393
G1 X70.380 Y89.924 E0.04325
G1 X70.580 Y89.124 E0.01889
G1 X70.930 Y87.914 E0.02885
G1 X71.180 Y87.154 E0.01832
G1 X71.730 Y85.684 E0.03595
G1 X72.020 Y84.994 E0.01714
G1 X72.670 Y83.574 E0.03577
G1 X72.960 Y82.984 E0.01506
G1 X73.400 Y82.164 E0.02131
G1 X73.870 Y81.344 E0.02165
G1 X74.250 Y80.734 E0.01646
G1 X75.120 Y79.434 E0.03582
G1 X75.640 Y78.734 E0.01997
G1 X76.970 Y77.074 E0.04871
G1 X77.600 Y76.364 E0.02174
G1 X78.243 Y75.683 E0.02145
G1 F1800.000 E-2.00000
G1 X83.892 Y88.493 F4200.000
G1 F1800.000 E2.00000
G1 X84.185 Y88.364 F1200.000 E0.00733
G1 X84.463 Y88.326 E0.00642
G1 X91.169 Y88.326 E0.15360
G1 X91.418 Y88.354 E0.00572
G1 X91.690 Y88.460 E0.00668
G1 X91.925 Y88.622 E0.00655
G1 X92.090 Y88.811 E0.00574
G1 X98.178 Y97.760 E0.24788
G1 X98.309 Y97.719 E0.00314
G1 X98.309 Y89.455 E0.18927
G1 X98.361 Y89.134 E0.00745
G1 X98.534 Y88.800 E0.00863
G1 X98.804 Y88.537 E0.00862
G1 X99.111 Y88.386 E0.00785
G1 X99.321 Y88.338 E0.00493
G1 X99.514 Y88.324 E0.00443
G1 X99.779 Y88.354 E0.00612
G1 X100.051 Y88.459 E0.00667
G1 X100.283 Y88.622 E0.00649
G1 X100.450 Y88.808 E0.00571
G1 X106.541 Y97.760 E0.24799
G1 X106.672 Y97.720 E0.00315
G1 X106.672 Y89.477 E0.18878
G1 X106.692 Y89.277 E0.00461
G1 X106.759 Y89.059 E0.00522
G1 X106.866 Y88.854 E0.00528
G1 X107.016 Y88.671 E0.00541
G1 X107.195 Y88.524 E0.00531
G1 X107.401 Y88.412 E0.00537
G1 X107.626 Y88.346 E0.00538
G1 X107.822 Y88.326 E0.00451
G1 X111.943 Y88.328 E0.09438
G1 X112.191 Y88.356 E0.00572
G1 X112.463 Y88.463 E0.00669
G1 X112.696 Y88.625 E0.00651
G1 X112.860 Y88.813 E0.00570
G1 X117.643 Y95.840 E0.19468
G1 X117.766 Y96.089 E0.00636
G1 X117.824 Y96.398 E0.00721
G1 X117.803 Y96.715 E0.00728
G1 X117.691 Y97.025 E0.00754
G1 X117.501 Y97.289 E0.00745
G1 X117.252 Y97.488 E0.00730
G1 X116.958 Y97.615 E0.00732
G1 X116.684 Y97.653 E0.00635
G1 X111.200 Y97.653 E0.12559
G1 X111.200 Y108.814 E0.25560
G1 X111.148 Y109.136 E0.00749
G1 X110.974 Y109.468 E0.00857
G1 X110.708 Y109.731 E0.00857
G1 X110.364 Y109.901 E0.00878
G1 X109.989 Y109.952 E0.00867
G1 X109.618 Y109.886 E0.00864
G1 X109.288 Y109.706 E0.00860
G1 X109.065 Y109.471 E0.00742
G1 X102.967 Y100.509 E0.24826
G1 X102.836 Y100.549 E0.00314
G1 X102.836 Y108.811 E0.18922
G1 X102.786 Y109.138 E0.00758
G1 X102.609 Y109.469 E0.00859
G1 X102.345 Y109.731 E0.00852
G1 X102.001 Y109.901 E0.00878
G1 X101.626 Y109.952 E0.00867
G1 X101.255 Y109.886 E0.00864
G1 X100.925 Y109.706 E0.00860
G1 X100.702 Y109.471 E0.00742
G1 X92.662 Y97.653 E0.32736
G1 X89.203 Y97.650 E0.07921
G1 X88.954 Y97.622 E0.00574
G1 X88.689 Y97.519 E0.00652
G1 X88.450 Y97.358 E0.00659
G1 X88.283 Y97.165 E0.00585
G1 X83.503 Y90.139 E0.19461
G1 X83.381 Y89.892 E0.00632
G1 X83.320 Y89.578 E0.00733
G1 X83.343 Y89.263 E0.00722
G1 X83.453 Y88.954 E0.00752
G1 X83.647 Y88.689 E0.00752
G1 X83.839 Y88.535 E0.00562
G1 X84.128 Y88.883 F4200.000
G1 X84.309 Y88.803 F1200.000 E0.00453
G1 X84.494 Y88.778 E0.00427
G1 X91.144 Y88.778 E0.15231
G1 X91.309 Y88.797 E0.00380
G1 X91.477 Y88.862 E0.00413
G1 X91.622 Y88.962 E0.00404
G1 X91.731 Y89.088 E0.00382
G1 X98.695 Y99.324 E0.28354
G1 X98.761 Y99.304 E0.00157
G1 X98.761 Y89.492 E0.22471
G1 X98.796 Y89.278 E0.00496
G1 X98.902 Y89.073 E0.00530
G1 X99.068 Y88.911 E0.00530
G1 X99.268 Y88.813 E0.00510
G1 X99.386 Y88.786 E0.00278
G1 X99.501 Y88.777 E0.00263
G1 X99.670 Y88.797 E0.00391
G1 X99.837 Y88.861 E0.00409
G1 X99.981 Y88.962 E0.00403
G1 X100.093 Y89.087 E0.00383
G1 X107.058 Y99.325 E0.28361
G1 X107.124 Y99.305 E0.00157
G1 X107.124 Y89.500 E0.22456
G1 X107.137 Y89.367 E0.00306
G1 X107.179 Y89.232 E0.00324
G1 X107.245 Y89.105 E0.00328
G1 X107.337 Y88.992 E0.00332
G1 X107.449 Y88.901 E0.00331
G1 X107.575 Y88.832 E0.00328
G1 X107.713 Y88.791 E0.00331
G1 X107.845 Y88.778 E0.00302
G1 X111.917 Y88.780 E0.09326
G1 X112.081 Y88.799 E0.00378
G1 X112.248 Y88.864 E0.00412
G1 X112.392 Y88.964 E0.00401
G1 X112.501 Y89.090 E0.00380
G1 X117.252 Y96.069 E0.19335
G1 X117.333 Y96.234 E0.00421
G1 X117.369 Y96.425 E0.00447
G1 X117.356 Y96.622 E0.00451
G1 X117.288 Y96.812 E0.00463
G1 X117.170 Y96.974 E0.00459
G1 X117.017 Y97.097 E0.00451
G1 X116.835 Y97.176 E0.00452
G1 X116.653 Y97.201 E0.00423
G1 X110.748 Y97.201 E0.13523
G1 X110.748 Y108.777 E0.26512
G1 X110.713 Y108.991 E0.00497
G1 X110.606 Y109.196 E0.00529
G1 X110.442 Y109.358 E0.00529
G1 X110.230 Y109.463 E0.00541
G1 X109.998 Y109.495 E0.00536
G1 X109.770 Y109.454 E0.00532
G1 X109.567 Y109.343 E0.00529
G1 X109.418 Y109.186 E0.00496
G1 X102.450 Y98.944 E0.28371
G1 X102.384 Y98.965 E0.00157
G1 X102.384 Y108.776 E0.22471
G1 X102.351 Y108.993 E0.00503
G1 X102.242 Y109.196 E0.00527
G1 X102.079 Y109.358 E0.00527
G1 X101.867 Y109.463 E0.00541
G1 X101.635 Y109.495 E0.00536
G1 X101.407 Y109.454 E0.00532
G1 X101.204 Y109.343 E0.00529
G1 X101.055 Y109.186 E0.00496
G1 X92.901 Y97.201 E0.33199
G1 X89.229 Y97.198 E0.08410
G1 X89.063 Y97.179 E0.00382
G1 X88.900 Y97.116 E0.00403
G1 X88.753 Y97.017 E0.00406
G1 X88.642 Y96.889 E0.00387
G1 X83.894 Y89.910 E0.19331
G1 X83.813 Y89.746 E0.00420
G1 X83.775 Y89.551 E0.00454
G1 X83.790 Y89.357 E0.00446
G1 X83.857 Y89.167 E0.00461
G1 X83.976 Y89.004 E0.00463
G1 X84.075 Y88.925 E0.00289
G1 X84.297 Y88.986 F4200.000
G1 F1800.000 E-2.00000
G1 X78.716 Y88.183 F4200.000
G1 X76.962 Y97.016
G1 X78.569 Y105.438
G1 X82.440 Y111.885
G1 X95.785 Y124.638
G1 X98.859 Y116.579
G1 F1800.000 E2.00000
G1 X99.172 Y116.456 F1200.000 E0.00769
G1 X99.497 Y116.371 E0.00770
G1 X99.832 Y116.330 E0.00772
G1 X100.168 Y116.330 E0.00770
G1 X100.503 Y116.372 E0.00772
G1 X100.828 Y116.456 E0.00770
G1 X101.141 Y116.579 E0.00769
G1 X101.437 Y116.742 E0.00773
G1 X101.709 Y116.940 E0.00771
G1 X101.953 Y117.170 E0.00769
G1 X102.167 Y117.428 E0.00768
G1 X102.348 Y117.712 E0.00773
G1 X102.492 Y118.019 E0.00775
G1 X102.595 Y118.339 E0.00770
G1 X102.658 Y118.667 E0.00766
G1 X102.680 Y119.004 E0.00772
G1 X102.658 Y119.341 E0.00772
G1 X102.595 Y119.669 E0.00766
G1 X102.492 Y119.989 E0.00770
G1 X102.348 Y120.296 E0.00775
G1 X102.167 Y120.580 E0.00773
G1 X101.953 Y120.838 E0.00768
G1 X101.709 Y121.068 E0.00769
G1 X101.437 Y121.266 E0.00771
G1 X101.141 Y121.429 E0.00773
G1 X100.828 Y121.552 E0.00769
G1 X100.503 Y121.636 E0.00770
G1 X100.168 Y121.678 E0.00772
G1 X99.832 Y121.678 E0.00770
G1 X99.497 Y121.637 E0.00772
G1 X99.172 Y121.552 E0.00770
G1 X98.859 Y121.429 E0.00769
G1 X98.563 Y121.266 E0.00774
G1 X98.291 Y121.068 E0.00771
G1 X98.047 Y120.838 E0.00769
G1 X97.833 Y120.580 E0.00768
G1 X97.652 Y120.296 E0.00773
G1 X97.508 Y119.989 E0.00775
G1 X97.405 Y119.669 E0.00769
G1 X97.342 Y119.341 E0.00766
G1 X97.320 Y119.004 E0.00772
G1 X97.342 Y118.667 E0.00772
G1 X97.405 Y118.339 E0.00766
G1 X97.508 Y118.019 E0.00769
G1 X97.652 Y117.712 E0.00775
G1 X97.833 Y117.428 E0.00773
G1 X98.047 Y117.170 E0.00768
G1 X98.291 Y116.940 E0.00769
G1 X98.563 Y116.742 E0.00771
G1 X98.800 Y116.611 E0.00618
G1 X99.028 Y117.002 F4200.000
