; generated by Slic3r 0.9.10-dev on 2013-05-12 at 17:08:04

; layer_height = 0.25
; perimeters = 3
; top_solid_layers = 3
; bottom_solid_layers = 3
; fill_density = 0.4
; perimeter_speed = 30
; infill_speed = 80
; travel_speed = 130
; nozzle_diameter = 0.35
; filament_diameter = 2.8
; extrusion_multiplier = 1
; perimeters extrusion width = 0.39mm
; infill extrusion width = 0.39mm
; solid infill extrusion width = 0.39mm
; top infill extrusion width = 0.39mm
; first layer extrusion width = 0.50mm

G21 ; set units to millimeters
M107
M104 S200 T0 ; set temperature
G28 X Y


M109 S200 T0 ; wait for temperature to be reached
G90 ; use absolute coordinates
M83 ; use relative distances for extrusion
T0
G1 F1800.000 E-1.00000
G1 Z0.250 F7800.000
G1 X71.770 Y61.900
G1 F1800.000 E1.00000
G1 X73.000 Y60.470 F540.000 E0.03583
G1 X74.080 Y59.330 E0.02983
G1 X75.470 Y58.000 E0.03654
G1 X76.900 Y56.770 E0.03583
G1 X78.710 Y55.380 E0.04335
G1 X80.270 Y54.320 E0.03582
G1 X81.920 Y53.320 E0.03665
G1 X83.600 Y52.420 E0.03620
G1 X85.320 Y51.610 E0.03611
G1 X86.770 Y51.010 E0.02981
G1 X88.540 Y50.370 E0.03575
G1 X90.710 Y49.730 E0.04297
G1 X92.560 Y49.290 E0.03612
G1 X94.100 Y49.000 E0.02976
G1 X96.040 Y48.740 E0.03718
G1 X98.260 Y48.570 E0.04229
G1 X99.830 Y48.530 E0.02983
G1 X101.720 Y48.570 E0.03591
G1 X103.950 Y48.740 E0.04248
G1 X105.890 Y49.000 E0.03718
G1 X107.430 Y49.290 E0.02976
G1 X109.280 Y49.730 E0.03612
G1 X111.080 Y50.250 E0.03559
G1 X112.930 Y50.900 E0.03724
G1 X114.670 Y51.610 E0.03569
G1 X116.700 Y52.580 E0.04273
G1 X118.370 Y53.490 E0.03612
G1 X119.710 Y54.310 E0.02984
G1 X121.280 Y55.380 E0.03609
G1 X123.060 Y56.750 E0.04266
G1 X124.520 Y58.000 E0.03651
G1 X125.660 Y59.080 E0.02983
G1 X126.990 Y60.470 E0.03654
G1 X128.220 Y61.900 E0.03583
G1 X129.630 Y63.730 E0.04388
G1 X130.510 Y65.030 E0.02982
G1 X131.680 Y66.930 E0.04238
G1 X132.420 Y68.310 E0.02974
G1 X133.380 Y70.320 E0.04231
G1 X134.090 Y72.060 E0.03569
G1 X134.740 Y73.910 E0.03724
G1 X135.260 Y75.710 E0.03559
G1 X135.700 Y77.560 E0.03612
G1 X135.990 Y79.100 E0.02976
G1 X136.250 Y81.040 E0.03718
G1 X136.400 Y82.920 E0.03582
G1 X136.460 Y84.740 E0.03459
G1 X136.400 Y87.050 E0.04389
G1 X136.250 Y88.950 E0.03620
G1 X135.990 Y90.890 E0.03718
G1 X135.700 Y92.430 E0.02976
G1 X135.260 Y94.280 E0.03612
G1 X134.740 Y96.080 E0.03559
G1 X134.090 Y97.930 E0.03724
G1 X133.380 Y99.670 E0.03569
G1 X132.550 Y101.420 E0.03679
G1 X131.680 Y103.050 E0.03509
G1 X130.510 Y104.960 E0.04254
G1 X129.630 Y106.260 E0.02982
G1 X128.240 Y108.060 E0.04320
G1 X126.990 Y109.520 E0.03651
G1 X125.910 Y110.660 E0.02983
G1 X124.520 Y111.990 E0.03654
G1 X123.060 Y113.240 E0.03651
G1 X121.260 Y114.630 E0.04320
G1 X119.960 Y115.510 E0.02982
G1 X118.050 Y116.680 E0.04254
G1 X116.420 Y117.550 E0.03509
G1 X114.670 Y118.380 E0.03679
G1 X112.930 Y119.090 E0.03569
G1 X111.080 Y119.740 E0.03724
G1 X109.280 Y120.260 E0.03559
G1 X107.430 Y120.700 E0.03612
G1 X105.890 Y120.990 E0.02976
G1 X103.950 Y121.250 E0.03718
G1 X101.720 Y121.420 E0.04248
G1 X100.150 Y121.460 E0.02983
G1 X98.260 Y121.420 E0.03591
G1 X96.040 Y121.250 E0.04229
G1 X94.100 Y120.990 E0.03718
G1 X92.560 Y120.700 E0.02976
G1 X90.710 Y120.260 E0.03612
G1 X88.910 Y119.740 E0.03559
G1 X87.060 Y119.090 E0.03724
G1 X85.320 Y118.380 E0.03569
G1 X83.310 Y117.420 E0.04231
G1 X81.930 Y116.680 E0.02974
G1 X80.030 Y115.510 E0.04238
G1 X78.730 Y114.630 E0.02982
G1 X76.900 Y113.220 E0.04388
G1 X75.470 Y111.990 E0.03583
G1 X74.080 Y110.660 E0.03654
G1 X73.000 Y109.520 E0.02983
G1 X71.750 Y108.060 E0.03651
G1 X70.380 Y106.280 E0.04266
G1 X69.310 Y104.710 E0.03609
G1 X68.490 Y103.370 E0.02984
G1 X67.580 Y101.700 E0.03612
G1 X66.610 Y99.670 E0.04273
G1 X65.900 Y97.930 E0.03569
G1 X65.250 Y96.080 E0.03724
G1 X64.730 Y94.280 E0.03559
G1 X64.290 Y92.430 E0.03612
G1 X64.000 Y90.890 E0.02976
G1 X63.740 Y88.950 E0.03718
G1 X63.570 Y86.730 E0.04229
G1 X63.530 Y85.210 E0.02888
G1 X63.570 Y83.260 E0.03704
G1 X63.740 Y81.040 E0.04229
G1 X64.000 Y79.100 E0.03718
G1 X64.290 Y77.560 E0.02976
G1 X64.730 Y75.710 E0.03612
G1 X65.250 Y73.910 E0.03559
G1 X65.900 Y72.060 E0.03724
G1 X66.610 Y70.320 E0.03569
G1 X67.580 Y68.280 E0.04290
G1 X68.500 Y66.600 E0.03638
G1 X69.490 Y65.010 E0.03558
G1 X70.590 Y63.420 E0.03672
G1 X71.726 Y61.954 E0.03522
G1 F1800.000 E-1.00000
G1 X76.575 Y101.200 F7800.000
G1 F1800.000 E1.00000
G1 X83.800 Y108.425 F1080.000 E0.19536
G1 X85.651 Y109.610 E0.04202
G1 X75.390 Y99.349 E0.27745
G1 X74.590 Y97.884 E0.03191
G1 X87.116 Y110.410 E0.33868
G1 X88.389 Y111.016 E0.02696
G1 X73.984 Y96.611 E0.38950
G1 X73.510 Y95.472 E0.02359
G1 X89.528 Y111.490 E0.43310
G1 X90.584 Y111.880 E0.02153
G1 X73.120 Y94.416 E0.47222
G1 X72.789 Y93.419 E0.02009
G1 X91.581 Y112.211 E0.50813
G1 X92.527 Y112.491 E0.01887
G1 X72.509 Y92.473 E0.54129
G1 X72.292 Y91.590 E0.01739
G1 X93.410 Y112.708 E0.57104
G1 X94.272 Y112.904 E0.01690
G1 X72.096 Y90.728 E0.59964
G1 X71.944 Y89.910 E0.01591
G1 X95.090 Y113.056 E0.62587
G1 X95.886 Y113.186 E0.01540
G1 X71.814 Y89.114 E0.65087
G1 X71.713 Y88.347 E0.01479
G1 X96.653 Y113.287 E0.67434
G1 X97.397 Y113.365 E0.01430
G1 X71.635 Y87.603 E0.69657
G1 X71.579 Y86.881 E0.01386
G1 X98.119 Y113.421 E0.71764
G1 X98.824 Y113.460 E0.01350
G1 X71.540 Y86.176 E0.73775
G1 X71.522 Y85.492 E0.01308
G1 X99.508 Y113.478 E0.75672
G1 X100.182 Y113.486 E0.01289
G1 X71.514 Y84.818 E0.77517
G1 X71.531 Y84.169 E0.01241
G1 X100.831 Y113.469 E0.79226
G1 X101.480 Y113.452 E0.01241
G1 X71.548 Y83.520 E0.80935
G1 X71.596 Y82.902 E0.01185
G1 X102.098 Y113.404 E0.82476
G1 X102.716 Y113.356 E0.01184
G1 X71.644 Y82.284 E0.84015
G1 X71.709 Y81.684 E0.01155
G1 X103.316 Y113.291 E0.85463
G1 X103.905 Y113.213 E0.01135
G1 X71.787 Y81.095 E0.86845
G1 X71.866 Y80.508 E0.01132
G1 X104.492 Y113.134 E0.88218
G1 X105.053 Y113.030 E0.01092
G1 X71.970 Y79.947 E0.89454
G1 X72.075 Y79.385 E0.01092
G1 X105.615 Y112.925 E0.90690
G1 X106.166 Y112.810 E0.01076
G1 X72.190 Y78.834 E0.91867
G1 X72.319 Y78.297 E0.01056
G1 X106.703 Y112.681 E0.92972
G1 X107.240 Y112.552 E0.01056
G1 X72.448 Y77.760 E0.94077
G1 X72.594 Y77.240 E0.01032
G1 X107.760 Y112.406 E0.95086
G1 X108.274 Y112.254 E0.01025
G1 X72.746 Y76.726 E0.96064
G1 X72.898 Y76.213 E0.01025
G1 X108.787 Y112.102 E0.97042
G1 X109.280 Y111.928 E0.00998
G1 X73.072 Y75.720 E0.97904
G1 X73.246 Y75.229 E0.00997
G1 X109.771 Y111.754 E0.98762
G1 X110.261 Y111.577 E0.00995
G1 X73.423 Y74.739 E0.99607
G1 X73.618 Y74.268 E0.00975
G1 X110.732 Y111.382 E1.00353
G1 X111.203 Y111.187 E0.00975
G1 X73.813 Y73.797 E1.01099
G1 X74.012 Y73.330 E0.00971
G1 X111.670 Y110.988 E1.01825
G1 X112.121 Y110.773 E0.00955
G1 X74.227 Y72.879 E1.02464
G1 X74.442 Y72.428 E0.00955
G1 X112.572 Y110.558 E1.03102
G1 X113.019 Y110.340 E0.00952
G1 X74.660 Y71.981 E1.03719
G1 X74.895 Y71.549 E0.00939
G1 X113.451 Y110.105 E1.04253
G1 X113.882 Y109.871 E0.00939
G1 X75.129 Y71.118 E1.04787
G1 X75.366 Y70.689 E0.00937
G1 X114.311 Y109.634 E1.05304
G1 X114.724 Y109.381 E0.00926
G1 X75.619 Y70.276 E1.05736
G1 X75.872 Y69.863 E0.00926
G1 X115.137 Y109.128 E1.06168
G1 X115.548 Y108.873 E0.00925
G1 X76.127 Y69.452 E1.06592
G1 X76.398 Y69.057 E0.00916
G1 X115.943 Y108.602 E1.06927
G1 X116.338 Y108.331 E0.00916
G1 X76.669 Y68.662 E1.07262
G1 X76.940 Y68.267 E0.00916
G1 X116.733 Y108.060 E1.07597
G1 X117.110 Y107.771 E0.00908
G1 X77.229 Y67.890 E1.07836
G1 X77.518 Y67.513 E0.00908
G1 X117.487 Y107.482 E1.08072
G1 X117.864 Y107.192 E0.00908
G1 X77.808 Y67.136 E1.08309
G1 X78.111 Y66.774 E0.00904
G1 X118.226 Y106.889 E1.08467
G1 X118.585 Y106.582 E0.00903
G1 X78.418 Y66.415 E1.08608
G1 X78.725 Y66.056 E0.00903
G1 X118.944 Y106.275 E1.08750
G1 X119.292 Y105.957 E0.00901
G1 X79.043 Y65.708 E1.08829
G1 X79.368 Y65.367 E0.00901
G1 X119.633 Y105.632 E1.08876
G1 X119.975 Y105.308 E0.00901
G1 X79.692 Y65.025 E1.08923
G1 X80.025 Y64.692 E0.00900
G1 X120.308 Y104.975 E1.08923
G1 X120.632 Y104.633 E0.00901
G1 X80.367 Y64.368 E1.08876
G1 X80.708 Y64.043 E0.00901
G1 X120.957 Y104.292 E1.08829
G1 X121.275 Y103.944 E0.00901
G1 X81.056 Y63.725 E1.08750
G1 X81.415 Y63.418 E0.00903
G1 X121.582 Y103.585 E1.08608
G1 X121.889 Y103.226 E0.00903
G1 X81.774 Y63.111 E1.08467
G1 X82.136 Y62.807 E0.00904
G1 X122.192 Y102.864 E1.08309
G1 X122.482 Y102.487 E0.00908
G1 X82.513 Y62.518 E1.08072
G1 X82.890 Y62.229 E0.00908
G1 X122.771 Y102.110 E1.07836
G1 X123.060 Y101.733 E0.00908
G1 X83.267 Y61.940 E1.07596
G1 X83.662 Y61.669 E0.00916
G1 X123.331 Y101.338 E1.07262
G1 X123.602 Y100.943 E0.00916
G1 X84.057 Y61.398 E1.06927
G1 X84.452 Y61.127 E0.00916
G1 X123.873 Y100.548 E1.06592
G1 X124.128 Y100.137 E0.00925
G1 X84.863 Y60.872 E1.06168
G1 X85.276 Y60.619 E0.00926
G1 X124.381 Y99.724 E1.05736
G1 X124.634 Y99.311 E0.00926
G1 X85.689 Y60.366 E1.05304
G1 X86.118 Y60.129 E0.00937
G1 X124.871 Y98.882 E1.04787
G1 X125.105 Y98.451 E0.00939
G1 X86.549 Y59.895 E1.04253
G1 X86.981 Y59.660 E0.00939
G1 X125.340 Y98.019 E1.03719
G1 X125.558 Y97.572 E0.00952
G1 X87.428 Y59.442 E1.03102
G1 X87.879 Y59.227 E0.00955
G1 X125.773 Y97.121 E1.02463
G1 X125.988 Y96.670 E0.00955
G1 X88.330 Y59.012 E1.01825
G1 X88.797 Y58.813 E0.00971
G1 X126.187 Y96.203 E1.01099
G1 X126.382 Y95.732 E0.00975
G1 X89.268 Y58.618 E1.00353
G1 X89.739 Y58.423 E0.00975
G1 X126.577 Y95.261 E0.99607
G1 X126.754 Y94.771 E0.00995
G1 X90.229 Y58.246 E0.98761
G1 X90.720 Y58.072 E0.00997
G1 X126.928 Y94.280 E0.97904
G1 X127.102 Y93.787 E0.00998
G1 X91.213 Y57.898 E0.97042
G1 X91.726 Y57.746 E0.01025
G1 X127.254 Y93.274 E0.96064
G1 X127.406 Y92.760 E0.01025
G1 X92.240 Y57.594 E0.95086
G1 X92.760 Y57.447 E0.01032
G1 X127.552 Y92.240 E0.94077
G1 X127.681 Y91.703 E0.01056
G1 X93.297 Y57.319 E0.92972
G1 X93.835 Y57.190 E0.01056
G1 X127.810 Y91.165 E0.91867
G1 X127.925 Y90.615 E0.01076
G1 X94.385 Y57.075 E0.90690
G1 X94.947 Y56.970 E0.01092
G1 X128.030 Y90.053 E0.89454
G1 X128.134 Y89.492 E0.01092
G1 X95.508 Y56.866 E0.88217
G1 X96.095 Y56.787 E0.01132
G1 X128.213 Y88.905 E0.86845
G1 X128.291 Y88.316 E0.01135
G1 X96.684 Y56.709 E0.85463
G1 X97.284 Y56.644 E0.01156
G1 X128.356 Y87.716 E0.84015
G1 X128.404 Y87.098 E0.01184
G1 X97.902 Y56.596 E0.82476
G1 X98.520 Y56.548 E0.01185
G1 X128.452 Y86.480 E0.80935
G1 X128.469 Y85.831 E0.01241
G1 X99.169 Y56.531 E0.79226
G1 X99.818 Y56.514 E0.01241
G1 X128.486 Y85.182 E0.77517
G1 X128.478 Y84.508 E0.01289
G1 X100.492 Y56.522 E0.75672
G1 X101.176 Y56.540 E0.01308
G1 X128.460 Y83.824 E0.73775
G1 X128.421 Y83.119 E0.01350
G1 X101.881 Y56.579 E0.71764
G1 X102.603 Y56.635 E0.01386
G1 X128.365 Y82.396 E0.69656
G1 X128.287 Y81.652 E0.01430
G1 X103.348 Y56.713 E0.67433
G1 X104.114 Y56.814 E0.01479
G1 X128.186 Y80.886 E0.65086
G1 X128.056 Y80.090 E0.01540
G1 X104.910 Y56.944 E0.62587
G1 X105.728 Y57.096 E0.01591
G1 X127.904 Y79.272 E0.59964
G1 X127.708 Y78.410 E0.01690
G1 X106.590 Y57.292 E0.57103
G1 X107.473 Y57.509 E0.01739
G1 X127.491 Y77.527 E0.54128
G1 X127.211 Y76.581 E0.01887
G1 X108.419 Y57.789 E0.50812
G1 X109.416 Y58.120 E0.02009
G1 X126.880 Y75.584 E0.47221
G1 X126.490 Y74.528 E0.02153
G1 X110.472 Y58.510 E0.43309
G1 X111.612 Y58.984 E0.02359
G1 X126.016 Y73.388 E0.38949
G1 X125.409 Y72.116 E0.02696
G1 X112.884 Y59.591 E0.33867
G1 X114.350 Y60.390 E0.03191
G1 X124.610 Y70.650 E0.27744
G1 X123.425 Y68.799 E0.04202
G1 X116.201 Y61.575 E0.19534
G1 X120.146 Y64.854 F7800.000
G1 X120.146 Y64.854 F1080.000 E0.00002
G1 X79.857 Y105.149 F7800.000
G1 X79.851 Y105.143 F1080.000 E0.00015
G1 X78.952 Y106.048 F7800.000
G1 X77.880 Y104.917 F378.000 E0.02959
G1 X76.868 Y103.733 E0.02959
G1 X75.918 Y102.496 E0.02961
G1 X75.036 Y101.212 E0.02960
G1 X74.222 Y99.883 E0.02960
G1 X73.478 Y98.514 E0.02959
G1 X72.808 Y97.107 E0.02960
G1 X72.211 Y95.667 E0.02960
G1 X71.691 Y94.199 E0.02959
G1 X71.248 Y92.705 E0.02960
G1 X70.885 Y91.188 E0.02961
G1 X70.600 Y89.656 E0.02960
G1 X70.397 Y88.112 E0.02959
G1 X70.275 Y86.558 E0.02960
G1 X70.234 Y84.999 E0.02961
G1 X70.275 Y83.442 E0.02958
G1 X70.397 Y81.888 E0.02960
G1 X70.600 Y80.344 E0.02959
G1 X70.885 Y78.812 E0.02960
G1 X71.248 Y77.295 E0.02961
G1 X71.691 Y75.801 E0.02960
G1 X72.211 Y74.333 E0.02959
G1 X72.808 Y72.893 E0.02960
G1 X73.478 Y71.486 E0.02960
G1 X74.222 Y70.117 E0.02959
G1 X75.036 Y68.788 E0.02960
G1 X75.918 Y67.504 E0.02960
G1 X76.868 Y66.267 E0.02961
G1 X77.880 Y65.083 E0.02959
G1 X78.952 Y63.952 E0.02959
G1 X80.083 Y62.880 E0.02959
G1 X81.267 Y61.868 E0.02959
G1 X82.504 Y60.918 E0.02961
G1 X83.788 Y60.036 E0.02960
G1 X85.117 Y59.222 E0.02960
G1 X86.486 Y58.478 E0.02959
G1 X87.893 Y57.808 E0.02960
G1 X89.333 Y57.211 E0.02960
G1 X90.801 Y56.691 E0.02959
G1 X92.295 Y56.248 E0.02960
G1 X93.812 Y55.885 E0.02961
G1 X95.344 Y55.600 E0.02960
G1 X96.888 Y55.397 E0.02959
G1 X98.442 Y55.275 E0.02960
G1 X100.000 Y55.234 E0.02960
G1 X101.558 Y55.275 E0.02960
G1 X103.112 Y55.397 E0.02960
G1 X104.656 Y55.600 E0.02959
G1 X106.188 Y55.885 E0.02960
G1 X107.705 Y56.248 E0.02961
G1 X109.199 Y56.691 E0.02960
G1 X110.667 Y57.211 E0.02959
G1 X112.107 Y57.808 E0.02960
G1 X113.514 Y58.478 E0.02960
G1 X114.883 Y59.222 E0.02959
G1 X116.212 Y60.036 E0.02960
G1 X117.496 Y60.918 E0.02960
G1 X118.733 Y61.868 E0.02961
G1 X119.917 Y62.880 E0.02959
G1 X121.048 Y63.952 E0.02959
G1 X122.120 Y65.083 E0.02959
G1 X123.132 Y66.267 E0.02959
G1 X124.082 Y67.504 E0.02961
G1 X124.964 Y68.788 E0.02960
G1 X125.778 Y70.117 E0.02960
G1 X126.521 Y71.486 E0.02959
G1 X127.192 Y72.893 E0.02960
G1 X127.789 Y74.333 E0.02960
G1 X128.309 Y75.801 E0.02959
G1 X128.752 Y77.295 E0.02960
G1 X129.115 Y78.812 E0.02961
G1 X129.400 Y80.344 E0.02960
G1 X129.603 Y81.888 E0.02959
G1 X129.725 Y83.442 E0.02960
G1 X129.766 Y85.000 E0.02960
G1 X129.725 Y86.558 E0.02960
G1 X129.603 Y88.112 E0.02960
G1 X129.400 Y89.656 E0.02959
G1 X129.115 Y91.188 E0.02960
G1 X128.752 Y92.705 E0.02961
G1 X128.309 Y94.199 E0.02960
G1 X127.789 Y95.667 E0.02959
G1 X127.192 Y97.107 E0.02960
G1 X126.521 Y98.514 E0.02960
G1 X125.778 Y99.883 E0.02959
G1 X124.964 Y101.212 E0.02960
G1 X124.082 Y102.496 E0.02960
G1 X123.132 Y103.733 E0.02961
G1 X122.120 Y104.917 E0.02959
G1 X121.048 Y106.048 E0.02959
G1 X119.917 Y107.120 E0.02959
G1 X118.733 Y108.132 E0.02959
G1 X117.496 Y109.082 E0.02961
G1 X116.212 Y109.964 E0.02960
G1 X114.883 Y110.778 E0.02960
G1 X113.514 Y111.521 E0.02959
G1 X112.107 Y112.192 E0.02960
G1 X110.667 Y112.789 E0.02960
G1 X109.199 Y113.309 E0.02959
G1 X107.705 Y113.752 E0.02960
G1 X106.188 Y114.115 E0.02961
G1 X104.656 Y114.400 E0.02960
G1 X103.112 Y114.603 E0.02959
G1 X101.558 Y114.725 E0.02960
G1 X100.000 Y114.766 E0.02960
G1 X98.442 Y114.725 E0.02960
G1 X96.888 Y114.603 E0.02960
G1 X95.344 Y114.400 E0.02959
G1 X93.812 Y114.115 E0.02960
G1 X92.295 Y113.752 E0.02961
G1 X90.801 Y113.309 E0.02960
G1 X89.333 Y112.789 E0.02959
G1 X87.893 Y112.192 E0.02960
G1 X86.486 Y111.521 E0.02960
G1 X85.117 Y110.778 E0.02959
G1 X83.788 Y109.964 E0.02960
G1 X82.504 Y109.082 E0.02960
G1 X81.267 Y108.132 E0.02961
G1 X80.083 Y107.120 E0.02959
G1 X79.003 Y106.096 E0.02826
G1 X79.077 Y105.597 F7800.000
G1 X79.283 Y105.717
G1 X78.228 Y104.604 F540.000 E0.02913
G1 X77.231 Y103.438 E0.02913
G1 X76.297 Y102.221 E0.02914
G1 X75.429 Y100.957 E0.02914
G1 X74.627 Y99.649 E0.02914
G1 X73.896 Y98.301 E0.02912
G1 X73.235 Y96.917 E0.02914
G1 X72.648 Y95.499 E0.02914
G1 X72.136 Y94.054 E0.02913
G1 X71.700 Y92.584 E0.02913
G1 X71.343 Y91.091 E0.02915
G1 X71.062 Y89.583 E0.02913
G1 X70.862 Y88.063 E0.02913
G1 X70.742 Y86.533 E0.02914
G1 X70.702 Y84.999 E0.02915
G1 X70.742 Y83.467 E0.02912
G1 X70.862 Y81.937 E0.02914
G1 X71.062 Y80.417 E0.02913
G1 X71.343 Y78.909 E0.02913
G1 X71.700 Y77.416 E0.02915
G1 X72.136 Y75.946 E0.02913
G1 X72.648 Y74.501 E0.02913
G1 X73.235 Y73.083 E0.02914
G1 X73.896 Y71.699 E0.02914
G1 X74.627 Y70.351 E0.02912
G1 X75.429 Y69.043 E0.02914
G1 X76.297 Y67.779 E0.02914
G1 X77.231 Y66.562 E0.02914
G1 X78.228 Y65.396 E0.02913
G1 X79.283 Y64.283 E0.02913
G1 X80.396 Y63.228 E0.02913
G1 X81.562 Y62.231 E0.02913
G1 X82.779 Y61.297 E0.02914
G1 X84.043 Y60.429 E0.02914
G1 X85.351 Y59.627 E0.02914
G1 X86.699 Y58.896 E0.02912
G1 X88.083 Y58.235 E0.02914
G1 X89.501 Y57.648 E0.02914
